polaris-icons/icons/BlogIcon.svg

<svg xmlns="http://www.w3.org/2000/svg" viewBox="0 0 20 20"><path d="M15.747 2.35354C15.9423 2.15828 16.2589 2.15828 16.4541 2.35354L17.5148 3.4142C17.7101 3.60946 17.7101 3.92604 17.5148 4.12131L16.5577 5.07842L14.7899 3.31065L15.747 2.35354Z"/>
<path d="M14.0828 4.01776L15.8506 5.78553L13.02 8.61611C12.6611 8.97496 12.1793 9.18397 11.6721 9.2008L10.9001 9.22641C10.7556 9.2312 10.6371 9.11277 10.6419 8.96826L10.6675 8.19624C10.6844 7.68903 10.8934 7.20719 11.2522 6.84834L14.0828 4.01776Z"/>
<path d="M5.5 5.74999C5.5 5.05963 6.05964 4.49999 6.75 4.49999H11.25C11.6642 4.49999 12 4.1642 12 3.74999C12 3.33577 11.6642 2.99999 11.25 2.99999H6.75C5.23122 2.99999 4 4.2312 4 5.74999V14.25C4 15.7688 5.23122 17 6.75 17H13.25C14.7688 17 16 15.7688 16 14.25V9.74999C16 9.33577 15.6642 8.99999 15.25 8.99999C14.8358 8.99999 14.5 9.33577 14.5 9.74999V14.25C14.5 14.9403 13.9404 15.5 13.25 15.5H6.75C6.05964 15.5 5.5 14.9403 5.5 14.25V5.74999Z"/>
<path d="M7.75 12.75C7.33579 12.75 7 13.0858 7 13.5C7 13.9142 7.33579 14.25 7.75 14.25H10.25C10.6642 14.25 11 13.9142 11 13.5C11 13.0858 10.6642 12.75 10.25 12.75H7.75Z"/>
<path d="M7 10.75C7 10.3358 7.33579 9.99999 7.75 9.99999H12.2501C12.6643 9.99999 13.0001 10.3358 13.0001 10.75C13.0001 11.1642 12.6643 11.5 12.2501 11.5H7.75C7.33579 11.5 7 11.1642 7 10.75Z"/></svg>

<svg xmlns="http://www.w3.org/2000/svg" viewBox="0 0 20 20"><path d="M15.747 2.354c.195-.196.512-.196.707 0l1.06 1.06c.196.195.196.512 0 .707l-.956.957-1.768-1.767.957-.957Z"/><path d="m14.083 4.018 1.768 1.768-2.831 2.83c-.359.359-.84.568-1.348.585l-.772.025c-.144.005-.263-.113-.258-.258l.026-.772c.016-.507.225-.989.584-1.348l2.83-2.83Z"/><path d="M5.5 5.75c0-.69.56-1.25 1.25-1.25h4.5c.414 0 .75-.336.75-.75s-.336-.75-.75-.75h-4.5c-1.519 0-2.75 1.231-2.75 2.75v8.5c0 1.519 1.231 2.75 2.75 2.75h6.5c1.519 0 2.75-1.231 2.75-2.75v-4.5c0-.414-.336-.75-.75-.75s-.75.336-.75.75v4.5c0 .69-.56 1.25-1.25 1.25h-6.5c-.69 0-1.25-.56-1.25-1.25v-8.5Z"/><path d="M7.75 12.75c-.414 0-.75.336-.75.75s.336.75.75.75h2.5c.414 0 .75-.336.75-.75s-.336-.75-.75-.75h-2.5Z"/><path d="M7 10.75c0-.414.336-.75.75-.75h4.5c.414 0 .75.336.75.75s-.336.75-.75.75h-4.5c-.414 0-.75-.336-.75-.75Z"/></svg>
